Src/Delivery/studio/bitmaps/src/mini/1/4.svg

<?xml version="1.0" encoding="UTF-8" standalone="no"?>
<svg
   xmlns:dc="http://purl.org/dc/elements/1.1/"
   xmlns:cc="http://creativecommons.org/ns#"
   xmlns:rdf="http://www.w3.org/1999/02/22-rdf-syntax-ns#"
   xmlns:svg="http://www.w3.org/2000/svg"
   xmlns="http://www.w3.org/2000/svg"
   xmlns:sodipodi="http://sodipodi.sourceforge.net/DTD/sodipodi-0.dtd"
   xmlns:inkscape="http://www.inkscape.org/namespaces/inkscape"
   height="100"
   viewBox="0 0 100 100"
   width="100"
   version="1.1"
   id="svg14"
   sodipodi:docname="4.svg"
   inkscape:version="1.0.2-2 (e86c870879, 2021-01-15)">
  <metadata
     id="metadata20">
    <rdf:RDF>
      <cc:Work
         rdf:about="">
        <dc:format>image/svg+xml</dc:format>
        <dc:type
           rdf:resource="http://purl.org/dc/dcmitype/StillImage" />
        <dc:title></dc:title>
      </cc:Work>
    </rdf:RDF>
  </metadata>
  <defs
     id="defs18" />
  <sodipodi:namedview
     pagecolor="#ffffff"
     bordercolor="#666666"
     borderopacity="1"
     objecttolerance="10"
     gridtolerance="10"
     guidetolerance="10"
     inkscape:pageopacity="0"
     inkscape:pageshadow="2"
     inkscape:window-width="2880"
     inkscape:window-height="1721"
     id="namedview16"
     showgrid="false"
     inkscape:zoom="10.08"
     inkscape:cx="50"
     inkscape:cy="50"
     inkscape:window-x="-11"
     inkscape:window-y="-11"
     inkscape:window-maximized="1"
     inkscape:current-layer="svg14" />
  <path
     d="m 0.002561,-73.541668 h 99.84866 V 26.306879 H 0.002561 Z"
     stroke-width="37.7381"
     id="path2"
     style="fill:none" />
  <path
     d="m 0.002561,-73.541668 h 99.84866 V 26.306879 H 0.002561 Z"
     stroke-width="37.7381"
     id="path4"
     style="fill:none" />
  <g
     id="g858">
    <path
       d="M 20,5 V 35 H 80 V 65 H 95 V 5 Z"
       stroke="#364a6b"
       stroke-linecap="round"
       id="path6"
       style="fill:#ffffff;stroke-width:10;fill-opacity:1" />
    <path
       d="M 5,35 V 95 H 80 V 35 Z"
       stroke="#114399"
       id="path8"
       style="fill:#ffffff;stroke-width:10;fill-opacity:1" />
  </g>
</svg>

<?xml version="1.0" encoding="UTF-8"?>
<svg width="100" height="100" version="1.1" viewBox="0 0 100 100" xmlns="http://www.w3.org/2000/svg">
 <path d="m0.002561-73.542h99.849v99.849h-99.849z" fill="none" stroke-width="37.738"/>
 <path d="m0.002561-73.542h99.849v99.849h-99.849z" fill="none" stroke-width="37.738"/>
 <g fill="#fff" stroke-width="10">
  <path d="m20 5v30h60v30h15v-60z" stroke="#364a6b" stroke-linecap="round"/>
  <path d="m5 35v60h75v-60z" stroke="#114399"/>
 </g>
</svg>
